packages/ffe-icons/icons/open/300/sm/water_damage.svg

<svg xmlns="http://www.w3.org/2000/svg" height="20" viewBox="0 -960 960 960" width="20"><path d="M276.309-216h407.382q5.385 0 8.847-3.462 3.462-3.462 3.462-8.847v-338.999L487.308-724.615q-3.077-2.308-7.308-2.308t-7.308 2.308L264-567.308v338.999q0 5.385 3.462 8.847 3.462 3.462 8.847 3.462Zm0 51.999q-26.623 0-45.465-18.843-18.843-18.842-18.843-45.465v-300.385L156-487.231q-8.51 6.307-18.793 4.884t-16.975-10.406q-6.692-8.478-5.239-18.723 1.453-10.245 9.931-16.985L441.195-766.97q17.498-13.336 38.963-13.336T519-767.23l316.754 239.136q8.63 6.71 9.86 16.979 1.231 10.269-5.461 18.807-6.692 8.538-16.961 10.153-10.269 1.616-18.807-4.692l-56.386-42.232v300.77q0 26.623-18.843 45.465-18.842 18.843-45.465 18.843H276.309Zm203.691-151q28.154 0 48.576-20.423 20.423-20.422 20.423-48.576 0-25.154-11.884-49.846Q525.23-458.537 480-523.46q-46 68.076-57.499 90.999-11.5 22.923-11.5 48.461 0 28.154 20.423 48.576 20.422 20.423 48.576 20.423ZM480-384Z"/></svg>

<svg xmlns="http://www.w3.org/2000/svg" height="20" viewBox="0 -960 960 960" width="20"><path d="M276.31-216h407.38q5.39 0 8.85-3.46t3.46-8.85v-339L487.31-724.62q-3.08-2.3-7.31-2.3-4.23 0-7.31 2.3L264-567.31v339q0 5.39 3.46 8.85t8.85 3.46Zm0 52q-26.62 0-45.47-18.84Q212-201.69 212-228.31v-300.38l-56 41.46q-8.51 6.31-18.79 4.88-10.29-1.42-16.98-10.4-6.69-8.48-5.24-18.73 1.46-10.24 9.93-16.98l316.27-238.51q17.5-13.34 38.97-13.34 21.46 0 38.84 13.08l316.75 239.14q8.63 6.71 9.86 16.97 1.23 10.27-5.46 18.81-6.69 8.54-16.96 10.16-10.27 1.61-18.81-4.7L748-529.08v300.77q0 26.62-18.84 45.47Q710.31-164 683.69-164H276.31ZM480-315q28.15 0 48.58-20.42Q549-355.85 549-384q0-25.15-11.89-49.85-11.88-24.69-57.11-89.61-46 68.08-57.5 91T411-384q0 28.15 20.42 48.58Q451.85-315 480-315Zm0-69Z"/></svg>
